X: 33
T:The Yeti
% Nottingham Music Database
S:Kevin Briggs, via EF
P:ABB
M:4/4
L:1/4
K:A
P:A
c/2d/2|"A"ee/2f/2 "E7/b"e/2d/2c/2B/2|"A/c+"AA E3/2E/2|"D"FF AA|\
"A"FE -"E7"Ec/2d/2|"A"ee/2f/2 e/2d/2c/2B/2|
"A"AA AA/2B/2|"Bm"c3/2B/2 cd|"Bm"cB -"E7"Bc/2d/2|"A"ee/2f/2 e/2d/2c/2B/2|\
"A"AA E3/2E/2|
"D"FF AA|"A"FE2E|"D"FF AB|"A"ce -"F#m"ec|"Bm"B3/2"E7"d/2 cB|"A"A2 A||
P:B
G/2A/2|"Bm"BB/2c/2 B/2A/2G/2A/2|"E7"Bc de/2d/2|"A"cB cd|\
"A"ef/2e/2 d/2c/2B/2A/2|
"Bm"BB/2c/2 B/2A/2G/2A/2|"E7"Bc dc/2d/2|"A"ec "E7"B/2d/2c/2B/2|"A"AA A:|<end>
<start>
